frontend/public/svg/interface/at-the-rate.svg

<svg width="156" height="149" viewBox="0 0 156 149" fill="none" xmlns="http://www.w3.org/2000/svg">
<g clip-path="url(#clip0)">
<path d="M110.45 7.87992C78.5859 -8.45631 37.1136 1.66066 17.9993 30.4377C17.474 31.2281 16.9353 32.0108 16.3958 32.7927C15.3756 34.2737 14.3203 35.8052 13.3754 37.3782C3.14279 54.416 -0.541668 70.8668 2.11214 87.663C6.49883 115.432 21.9275 134.533 47.9688 144.433C55.4267 147.185 63.3264 148.548 71.2763 148.456C78.2416 148.37 85.1835 147.638 92.0126 146.269C92.8316 146.103 93.6248 145.829 94.3706 145.454C96.9914 144.179 98.3838 141.895 98.0024 139.49C97.6263 137.112 95.5056 135.375 92.5975 135.067C91.7694 135.009 90.9373 135.052 90.1201 135.197C89.2446 135.32 88.3717 135.465 87.5 135.61C86.7296 135.739 85.9598 135.869 85.1867 135.979C73.5046 137.679 63.4501 137.221 54.4503 134.579C36.8167 129.401 15.4613 112.541 13.3114 82.0664C11.8587 61.4831 19.4032 43.0246 35.7359 27.204C50.1114 13.2796 68.6264 8.48182 90.7706 12.9518C104.51 15.7245 116.63 22.9405 127.821 35.014C136.145 43.9942 140.629 52.0116 142.361 61.0099C144.555 72.4119 143.057 82.1053 137.781 90.6469C133.018 98.356 126.479 102.268 118.344 102.268H118.134C110.755 102.207 106.4 98.7318 104.82 91.6433C104.315 89.4102 103.997 87.1396 103.869 84.854C103.441 76.6629 103.065 68.0838 102.719 58.6274C102.639 56.4306 102.128 53.755 98.865 52.5578C98.0426 52.1844 97.2994 51.6566 96.6762 51.003C94.0094 48.4824 90.6493 46.7735 86.4047 45.7784C74.1765 42.915 62.6097 45.1955 51.0405 52.764C46.742 55.442 43.407 59.415 41.5164 64.1098C40.0113 67.7281 38.9197 71.5049 38.263 75.3679C36.9925 83.8162 38.4492 90.6029 42.7172 96.1171C48.0416 102.998 54.8325 107.065 62.9022 108.198C66.5523 108.754 70.2393 109.041 73.932 109.057C81.0478 109.003 89.2556 108.109 96.442 101.996C96.5367 102.125 96.6178 102.239 96.695 102.358C101.388 109.596 108.481 113.364 117.772 113.555C129.699 113.801 139.64 108.357 146.517 97.8125C157.648 80.7462 158.119 62.3764 147.916 43.2137C140.085 28.4989 127.478 16.61 110.45 7.87992ZM92.9542 69.5336C92.9847 70.5611 93.0191 71.6183 93.0256 72.6613C92.925 72.7203 92.842 72.8038 92.7843 72.9049C92.7266 73.006 92.6968 73.1193 92.6968 73.2359C92.6968 74.5419 92.7 75.848 92.7065 77.1546C92.7169 80.0012 92.7279 82.9455 92.6851 85.8355C92.5904 92.2872 89.5384 96.0938 83.354 97.4743C76.198 99.1742 68.7236 98.9929 61.659 96.9477C52.0315 94.0733 47.1917 86.8416 48.3817 77.1119L48.4273 76.7322C48.5687 75.5713 48.7141 74.3709 48.9366 73.2171C50.2563 66.3916 53.8362 61.4817 59.8818 58.2069C66.0854 54.8467 72.1284 53.1838 78.1981 53.1838C80.3804 53.1862 82.5576 53.3971 84.6997 53.8139C86.4916 54.1895 88.2387 54.7525 89.9126 55.4933C92.165 56.4456 93.5794 57.7274 93.1598 60.8856C92.8582 63.758 92.7895 66.6501 92.9542 69.5336Z" fill="black"/>
</g>
<defs>
<clipPath id="clip0">
<rect width="155" height="149" fill="white" transform="translate(0.777344)"/>
</clipPath>
</defs>
</svg>

<svg xmlns="http://www.w3.org/2000/svg" width="156" height="149" fill="none" viewBox="0 0 156 149"><g clip-path="url(#a)"><path fill="#000" d="M110.45 7.88C78.586-8.456 37.114 1.66 18 30.438c-.526.79-1.065 1.573-1.604 2.355-1.02 1.48-2.076 3.012-3.02 4.585C3.142 54.416-.543 70.867 2.111 87.663c4.387 27.769 19.816 46.87 45.857 56.77a65.2 65.2 0 0 0 23.307 4.023 112.6 112.6 0 0 0 20.737-2.187 9.4 9.4 0 0 0 2.358-.815c2.62-1.275 4.013-3.559 3.631-5.964-.376-2.378-2.496-4.115-5.404-4.423a10 10 0 0 0-2.478.13c-.875.123-1.748.268-2.62.413-.77.129-1.54.259-2.313.369-11.682 1.7-21.737 1.242-30.737-1.4-17.633-5.178-38.989-22.038-41.139-52.513-1.452-20.583 6.092-39.041 22.425-54.862C50.11 13.28 68.626 8.482 90.77 12.952c13.739 2.773 25.859 9.989 37.05 22.062 8.324 8.98 12.808 16.998 14.54 25.996 2.194 11.402.696 21.095-4.58 29.637-4.763 7.709-11.302 11.621-19.437 11.621h-.21c-7.379-.061-11.734-3.536-13.314-10.625a41 41 0 0 1-.951-6.789 1670 1670 0 0 1-1.15-26.227c-.08-2.196-.591-4.872-3.854-6.07a7 7 0 0 1-2.189-1.554c-2.667-2.52-6.027-4.23-10.271-5.225-12.228-2.863-23.795-.582-35.364 6.986a23.88 23.88 0 0 0-9.525 11.346 52 52 0 0 0-3.253 11.258c-1.27 8.448.186 15.235 4.454 20.75 5.325 6.88 12.116 10.947 20.185 12.08a75.4 75.4 0 0 0 11.03.859c7.116-.054 15.324-.948 22.51-7.061.095.129.176.243.253.362 4.693 7.238 11.786 11.006 21.077 11.197 11.927.246 21.868-5.198 28.745-15.743 11.131-17.066 11.602-35.436 1.399-54.598-7.831-14.715-20.438-26.604-37.466-35.334M92.954 69.534c.03 1.027.065 2.084.072 3.127a.66.66 0 0 0-.33.575q0 1.959.01 3.919c.01 2.846.022 5.79-.02 8.68-.096 6.452-3.148 10.259-9.332 11.64a42.6 42.6 0 0 1-21.695-.527c-9.627-2.875-14.467-10.106-13.277-19.836l.045-.38c.142-1.16.287-2.361.51-3.515 1.32-6.825 4.9-11.735 10.945-15.01 6.203-3.36 12.246-5.023 18.316-5.023 2.182.002 4.36.213 6.502.63 1.792.376 3.539.938 5.213 1.68 2.252.952 3.666 2.233 3.247 5.392a53.6 53.6 0 0 0-.206 8.648"/></g><defs><clipPath id="a"><path fill="#fff" d="M.777 0h155v149h-155z"/></clipPath></defs></svg>
